app/img/contact/ic_name.svg

<svg width="25" height="20" viewBox="0 0 25 20" fill="none" xmlns="http://www.w3.org/2000/svg">
    <path fill-rule="evenodd" clip-rule="evenodd"
          d="M1.68134 20C1.23578 20.0003 0.826879 19.7696 0.619834 19.4018C0.412789 19.0337 0.441347 18.589 0.694474 18.2469C3.29486 14.7762 7.60808 12.5 12.4866 12.5C17.3655 12.5 21.6787 14.7762 24.2719 18.2518C24.5231 18.5911 24.5517 19.0328 24.3459 19.3982C24.1405 19.7636 23.7345 19.9924 23.2922 19.9924C23.2838 20 23.2753 20 23.2669 20C22.895 20 22.5474 19.8271 22.3397 19.5393C20.1817 16.6219 16.5717 14.7105 12.4866 14.7105C8.40186 14.7105 4.79188 16.6219 2.62959 19.5365C2.42287 19.8232 2.07693 19.9949 1.70666 19.9949C1.69822 20 1.68978 20 1.68134 20V20Z"
          fill="#A2A2A4"/>
    <path fill-rule="evenodd" clip-rule="evenodd"
          d="M12.4827 0C9.51403 0 7.10352 2.427 7.10352 5.41667C7.10352 8.40633 9.51403 10.8333 12.4827 10.8333C15.4516 10.8333 17.8621 8.40633 17.8621 5.41667C17.8621 2.427 15.4516 0 12.4827 0V0ZM12.4827 2.38006C14.147 2.38006 15.4982 3.74075 15.4982 5.41667C15.4982 7.09259 14.147 8.45327 12.4827 8.45327C10.8184 8.45327 9.46742 7.09259 9.46742 5.41667C9.46742 3.74075 10.8184 2.38006 12.4827 2.38006Z"
          fill="#A2A2A4"/>
</svg>

<svg width="25" height="20" fill="none" xmlns="http://www.w3.org/2000/svg"><path fill-rule="evenodd" clip-rule="evenodd" d="M1.681 20c-.445 0-.854-.23-1.061-.598a1.055 1.055 0 0 1 .074-1.155c2.6-3.47 6.914-5.747 11.793-5.747s9.192 2.276 11.785 5.752c.251.34.28.78.074 1.146a1.203 1.203 0 0 1-1.054.594c-.008.008-.017.008-.025.008-.372 0-.72-.173-.927-.46-2.158-2.918-5.768-4.83-9.853-4.83s-7.695 1.912-9.857 4.826a1.136 1.136 0 0 1-.923.459C1.698 20 1.69 20 1.68 20ZM12.483 0c-2.969 0-5.38 2.427-5.38 5.417 0 2.99 2.411 5.416 5.38 5.416s5.38-2.427 5.38-5.416c0-2.99-2.411-5.417-5.38-5.417Zm0 2.38c1.664 0 3.015 1.36 3.015 3.037 0 1.676-1.351 3.036-3.015 3.036-1.665 0-3.016-1.36-3.016-3.036s1.351-3.037 3.016-3.037Z" fill="#A2A2A4"/></svg>
